admin/src/theme/img/safetyequipment/p.svg

<svg width="32" height="32" viewBox="0 0 32 32" xmlns="http://www.w3.org/2000/svg">
  <g fill="none" fill-rule="evenodd">
    <path d="M11.24 30.8571429h9.5257143V32H11.24v-1.1428571ZM16 7.54285714c.9142857 0 1.6971429.32571429 2.3428571.97142857.6457143.64571429.9714286 1.42857143.9714286 2.34285719 0 .9142857-.3257143 1.7028571-.9714286 2.36-.6457142.6628571-1.4285714.9885714-2.3428571.9885714-.9142857 0-1.6971429-.3314286-2.3428571-.9885714-.6457143-.6628572-.9714286-1.4457143-.9714286-2.36 0-.91428576.3257143-1.6971429.9714286-2.34285719.6457142-.64571428 1.4285714-.97142857 2.3428571-.97142857Zm-.5714286 6.62857146v16.7257143h1.1428572V14.1714286h-1.1428572Z" fill="#EC0E0E" fill-rule="nonzero"/>
    <path d="M0 0h32v32H0z"/>
  </g>
</svg>

<?xml version="1.0" encoding="UTF-8"?>
<svg width="32px" height="32px" viewBox="0 0 32 32" version="1.1" xmlns="http://www.w3.org/2000/svg" xmlns:xlink="http://www.w3.org/1999/xlink">
    <title>9561B5DB-953B-421F-A1DB-5AF7874BAC55</title>
    <g id="Squat-laskuri" stroke="none" stroke-width="1" fill="none" fill-rule="evenodd">
        <g id="colors_and_typography" transform="translate(-862.000000, -954.000000)">
            <g id="turvalaite_ikonit" transform="translate(718.000000, 906.000000)">
                <g id="turvavesimerkki" transform="translate(144.000000, 48.000000)">
                    <path d="M11.24,30.8571429 L20.7657143,30.8571429 L20.7657143,32 L11.24,32 L11.24,30.8571429 Z M16,7.54285714 C16.9142857,7.54285714 17.6971429,7.86857143 18.3428571,8.51428571 C18.9885714,9.16 19.3142857,9.94285714 19.3142857,10.8571429 C19.3142857,11.7714286 18.9885714,12.56 18.3428571,13.2171429 C17.6971429,13.88 16.9142857,14.2057143 16,14.2057143 C15.0857143,14.2057143 14.3028571,13.8742857 13.6571429,13.2171429 C13.0114286,12.5542857 12.6857143,11.7714286 12.6857143,10.8571429 C12.6857143,9.94285714 13.0114286,9.16 13.6571429,8.51428571 C14.3028571,7.86857143 15.0857143,7.54285714 16,7.54285714 L16,7.54285714 Z M15.4285714,14.1714286 L15.4285714,30.8971429 L16.5714286,30.8971429 L16.5714286,14.1714286 L15.4285714,14.1714286 Z" id="Shape" fill="#EC0E0E" fill-rule="nonzero"></path>
                    <rect id="Rectangle" x="0" y="0" width="32" height="32"></rect>
                </g>
            </g>
        </g>
    </g>
</svg>
